symbols/web/font_download/materialsymbolssharp/font_download_wght500_20px.svg

<svg xmlns="http://www.w3.org/2000/svg" height="20" width="20"><path d="M5.229 14.979h1.896l.917-2.458h3.937l.896 2.458h1.917L10.979 5H9.021Zm3.313-4.041 1.416-3.959h.084l1.396 3.959ZM1.5 18.5v-17h17v17Zm1.979-1.979h13.042V3.479H3.479Zm0 0V3.479v13.042Z"/></svg>

<svg xmlns="http://www.w3.org/2000/svg" height="20" width="20"><path d="M5.229 14.979H7.125L8.042 12.521H11.979L12.875 14.979H14.792L10.979 5H9.021ZM8.542 10.938 9.958 6.979H10.042L11.438 10.938ZM1.5 18.5V1.5H18.5V18.5ZM3.479 16.521H16.521V3.479H3.479ZM3.479 16.521V3.479V16.521Z"/></svg>
